X: 14
T: Silver Spire, The
Z: Sean Perry
S: https://thesession.org/tunes/240#setting50905
R: reel
M: 4/4
L: 1/8
K: Dmaj
A,/B,/C|:D2 FE DEFA|dcde fdAF|G2BG FADF|GFED CEA,C|
D2 FE DEFA|dcde fdAF|GABG FA E/F/G|1 F2D2 D2A,/B,/C:|2 F2D2 D2CB,||
|:A,B,CD EFGE|FDEF GABc|dcBA Bcde|f2gf e2 A/B/c|
d2fd c2ec|BABc dcBA|GABG FA E/F/G|1 F2D2 D2CB,:|2 F2D2 D4||

